packages/foundations/assets/icons/functional/images/technology/wifi_14.svg

<svg width="14" height="14" viewBox="0 0 14 14" fill="none" xmlns="http://www.w3.org/2000/svg">
<g clip-path="url(#clip0_187_651)">
<path fill-rule="evenodd" clip-rule="evenodd" d="M1.40002 4.81855C1.40002 4.62123 1.46565 4.46776 1.5969 4.3143C3.10627 2.82347 4.8344 2.09998 7.04377 2.09998C9.0344 2.09998 10.9594 2.88924 12.3813 4.3143C12.5125 4.44584 12.6 4.64315 12.6 4.81855C12.6 5.2351 12.2938 5.52011 11.9 5.52011C11.725 5.52011 11.55 5.45434 11.3969 5.3228C10.2375 4.13891 8.6844 3.48119 7.04377 3.48119C5.31565 3.48119 3.76252 4.11698 2.58127 5.30087C2.45002 5.43242 2.27502 5.52011 2.10002 5.52011C1.79377 5.52011 1.40002 5.27895 1.40002 4.81855ZM3.98127 7.2521C3.98127 7.07671 4.0469 6.8794 4.20002 6.74785C5.0094 5.98051 5.8844 5.58588 7.04377 5.58588C8.11565 5.58588 9.1219 6.00244 9.88752 6.74785C10.0406 6.90132 10.0844 7.07671 10.0844 7.2521C10.0844 7.58096 9.86565 7.95367 9.3844 7.95367C9.2094 7.95367 9.0344 7.8879 8.90315 7.75635C8.40002 7.27403 7.74377 6.98902 7.04377 6.98902C6.34377 6.98902 5.64377 7.27403 5.1844 7.75635C5.05315 7.8879 4.87815 7.95367 4.68127 7.95367C4.26565 7.95367 3.98127 7.58096 3.98127 7.2521ZM5.60002 10.5C5.60002 9.73435 6.21252 9.09998 7.00002 9.09998C7.76565 9.09998 8.40002 9.71248 8.40002 10.5C8.40002 11.2656 7.78752 11.9 7.00002 11.9C6.2344 11.9 5.60002 11.2875 5.60002 10.5Z" fill="#1A1C1F"/>
</g>
<defs>
<clipPath id="clip0_187_651">
<rect width="14" height="14" fill="white"/>
</clipPath>
</defs>
</svg>

<svg xmlns="http://www.w3.org/2000/svg" width="14" height="14" fill="none"><g clip-path="url(#a)"><path fill="#1A1C1F" fill-rule="evenodd" d="M1.4 4.819c0-.198.066-.351.197-.505C3.107 2.824 4.834 2.1 7.044 2.1c1.99 0 3.915.79 5.337 2.214a.76.76 0 0 1 .219.505.68.68 0 0 1-.7.701.77.77 0 0 1-.503-.197A6.07 6.07 0 0 0 7.044 3.48c-1.728 0-3.281.636-4.463 1.82a.7.7 0 0 1-.481.22c-.306 0-.7-.242-.7-.702m2.581 2.433c0-.175.066-.373.219-.504.81-.767 1.684-1.162 2.844-1.162 1.072 0 2.078.416 2.844 1.162a.68.68 0 0 1 .196.504c0 .329-.218.702-.7.702a.68.68 0 0 1-.48-.198 2.69 2.69 0 0 0-1.86-.767c-.7 0-1.4.285-1.86.767a.7.7 0 0 1-.503.198c-.415 0-.7-.373-.7-.702M5.6 10.5c0-.766.613-1.4 1.4-1.4.766 0 1.4.612 1.4 1.4 0 .766-.612 1.4-1.4 1.4-.766 0-1.4-.613-1.4-1.4" clip-rule="evenodd"/></g><defs><clipPath id="a"><path fill="#fff" d="M0 0h14v14H0z"/></clipPath></defs></svg>
